dataset/qgis/icon.svg

<?xml version="1.0" encoding="UTF-8" standalone="no"?>
<svg
   height="128"
   viewBox="0 0 128 128"
   width="128"
   version="1.1"
   id="svg21"
   xml:space="preserve"
   xmlns:xlink="http://www.w3.org/1999/xlink"
   xmlns="http://www.w3.org/2000/svg"
   xmlns:svg="http://www.w3.org/2000/svg"><defs
     id="defs25"><linearGradient
       id="linearGradient22"><stop
         style="stop-color:#2d4918;stop-opacity:1;"
         offset="0.51935166"
         id="stop22" /><stop
         style="stop-color:#74bd3d;stop-opacity:1;"
         offset="0.61177391"
         id="stop24" /><stop
         style="stop-color:#2d4a17;stop-opacity:1;"
         offset="0.69788462"
         id="stop23" /></linearGradient><linearGradient
       id="linearGradient9"><stop
         style="stop-color:#2b4918;stop-opacity:1;"
         offset="0"
         id="stop11" /><stop
         style="stop-color:#b4d52f;stop-opacity:1;"
         offset="0.5"
         id="stop14" /><stop
         style="stop-color:#2b4918;stop-opacity:1;"
         offset="0.75"
         id="stop15" /><stop
         style="stop-color:#a4c427;stop-opacity:1;"
         offset="1"
         id="stop13" /></linearGradient><linearGradient
       id="Gradient_1"
       gradientUnits="userSpaceOnUse"
       x1="200.788"
       y1="249.007"
       x2="197.17"
       y2="11.232"
       gradientTransform="matrix(0.48923679,0,0,0.48923679,1.37769,-2.0151669)"><stop
         offset="0"
         stop-color="#589632"
         id="stop5" /><stop
         offset="1"
         stop-color="#93B023"
         id="stop7" /></linearGradient><linearGradient
       id="Gradient_2"
       gradientUnits="userSpaceOnUse"
       x1="129.939"
       y1="252.718"
       x2="126.351"
       y2="16.928"
       gradientTransform="matrix(0.48923679,0,0,0.48923679,1.37769,-2.0151669)"><stop
         offset="0"
         stop-color="#589632"
         id="stop10-0" /><stop
         offset="1"
         stop-color="#93B023"
         id="stop12" /></linearGradient><linearGradient
       xlink:href="#linearGradient9"
       id="linearGradient13"
       x1="-159.72572"
       y1="63.59173"
       x2="-39.725721"
       y2="63.59173"
       gradientUnits="userSpaceOnUse"
       gradientTransform="translate(163.72572)" /><linearGradient
       xlink:href="#linearGradient22"
       id="linearGradient23"
       x1="-87.979146"
       y1="99.111793"
       x2="-40.987463"
       y2="99.111793"
       gradientUnits="userSpaceOnUse"
       gradientTransform="translate(163.72572)" /></defs><linearGradient
     id="a"
     gradientUnits="userSpaceOnUse"
     x1="10.000004"
     x2="118"
     y1="66"
     y2="66"
     gradientTransform="matrix(1.1111111,0,0,1.0925926,-7.1111109,-6.1111114)"><stop
       offset="0"
       stop-color="#429aea"
       id="stop2"
       style="stop-color:#3f5e79;stop-opacity:1;" /><stop
       offset="0.40958059"
       stop-color="#75aadb"
       id="stop4"
       style="stop-color:#9ec3e6;stop-opacity:1;" /><stop
       offset="0.81051815"
       stop-color="#429aea"
       id="stop8"
       style="stop-color:#3f5e79;stop-opacity:1;" /><stop
       offset="1"
       stop-color="#75aadb"
       id="stop10" /></linearGradient><path
     d="m 72.231897,99.489725 c -2.553816,0.588065 -5.206947,0.907045 -7.944227,0.907045 -19.58268,0 -36.23875,-16.102739 -36.23875,-36.981409 0,-20.879158 16.47065,-36.628669 36.23875,-36.628669 19.765656,0 35.503914,15.747065 35.503914,36.628669 0,2.717016 -1.204012,5.757828 -1.204012,5.757828 v 4 L 116.71233,91.295498 C 121.38552,83.107631 124,73.586594 124,63.27495 124,31.093933 98.318492,6.9999994 63.921232,6.9999994 29.67955,6.9999994 4,30.936888 4,63.27495 c 0,32.495597 25.67955,56.90851 59.921232,56.90851 8.838552,0 17.099804,-1.62573 24.499511,-4.58463 v -4 z"
     fill="url(#Gradient_2)"
     id="path1"
     style="fill:url(#linearGradient13);stroke-width:0.489237" /><path
     d="M 122.73826,105.72652 92.678081,76.009295 H 75.746574 v 17.495597 l 28.806756,28.709398 h 18.18493 z"
     fill="url(#Gradient_1)"
     id="path20"
     style="fill:url(#linearGradient23);fill-opacity:1;stroke-width:0.489237" /><path
     d="M 75.746574,76.009295 H 92.678081 L 85.547944,68.96086 H 68.700097 v 17.519081 l 7.046477,7.024951 z"
     fill="#f0e64a"
     id="path18"
     style="fill:#c6bb10;fill-opacity:1;stroke-width:0.489237" /><path
     d="M 68.700097,68.96086 H 85.547944 L 71.288649,54.863013 H 53.81898 v 16.785225 l 14.881117,14.831703 z"
     fill="#ee7913"
     id="polygon3"
     style="fill:#8f480a;fill-opacity:1;stroke-width:0.489237" /><path
     d="M 68.700097,64.96086 H 85.547944 L 71.288649,50.863013 H 53.81898 v 16.785225 l 14.881117,14.831703 z"
     fill="#ee7913"
     id="path16"
     style="stroke-width:0.489237" /><path
     d="M 122.73826,101.72652 92.678081,72.009295 H 75.746574 v 17.495597 l 28.806756,28.709398 h 18.18493 z"
     fill="url(#Gradient_1)"
     id="polygon10"
     style="fill:url(#Gradient_1);stroke-width:0.489237" /><path
     d="M 75.746574,72.009295 H 92.678081 L 85.547944,64.96086 H 68.700097 v 17.519081 l 7.046477,7.024951 z"
     fill="#f0e64a"
     id="polygon12"
     style="stroke-width:0.489237" /><path
     d="m 72.231897,95.489725 c -2.553816,0.588063 -5.206947,0.907045 -7.944227,0.907045 -19.58268,0 -36.23875,-16.102739 -36.23875,-36.981409 0,-20.879158 16.47065,-36.628669 36.23875,-36.628669 19.765656,0 35.503914,15.747065 35.503914,36.628669 0,3.393836 -0.422211,6.662916 -1.204012,9.757828 L 116.71233,87.295498 C 121.38552,79.107631 124,69.586594 124,59.27495 124,27.093933 98.318492,2.9999994 63.921232,2.9999994 29.67955,2.9999994 4,26.936888 4,59.27495 c 0,32.495597 25.67955,56.90851 59.921232,56.90851 8.838552,0 17.099804,-1.62573 24.499511,-4.58463 z"
     fill="url(#Gradient_2)"
     id="path19-2"
     style="fill:url(#Gradient_2);stroke-width:0.489237" /><path
     d="m 53.81898,50.863013 68.91928,67.351277 V 101.72652 L 92.678081,72.009295 85.547944,64.960371 71.288649,50.863013 Z"
     fill="#ffffff"
     fill-opacity="0.172"
     id="polygon4153"
     style="stroke-width:0.489237" /></svg>

<svg xmlns="http://www.w3.org/2000/svg" xmlns:xlink="http://www.w3.org/1999/xlink" xml:space="preserve" width="128" height="128" viewBox="0 0 128 128"><defs><linearGradient id="b"><stop offset=".519" style="stop-color:#2d4918;stop-opacity:1"/><stop offset=".612" style="stop-color:#74bd3d;stop-opacity:1"/><stop offset=".698" style="stop-color:#2d4a17;stop-opacity:1"/></linearGradient><linearGradient id="a"><stop offset="0" style="stop-color:#2b4918;stop-opacity:1"/><stop offset=".5" style="stop-color:#b4d52f;stop-opacity:1"/><stop offset=".75" style="stop-color:#2b4918;stop-opacity:1"/><stop offset="1" style="stop-color:#a4c427;stop-opacity:1"/></linearGradient><linearGradient id="e" x1="200.788" x2="197.17" y1="249.007" y2="11.232" gradientTransform="translate(1.378 -2.015)scale(.48924)" gradientUnits="userSpaceOnUse"><stop offset="0" stop-color="#589632"/><stop offset="1" stop-color="#93b023"/></linearGradient><linearGradient id="c" x1="129.939" x2="126.351" y1="252.718" y2="16.928" gradientTransform="translate(1.378 -2.015)scale(.48924)" gradientUnits="userSpaceOnUse"><stop offset="0" stop-color="#589632"/><stop offset="1" stop-color="#93b023"/></linearGradient><linearGradient xlink:href="#a" id="d" x1="-159.726" x2="-39.726" y1="63.592" y2="63.592" gradientTransform="translate(163.726)" gradientUnits="userSpaceOnUse"/><linearGradient xlink:href="#b" id="f" x1="-87.979" x2="-40.987" y1="99.112" y2="99.112" gradientTransform="translate(163.726)" gradientUnits="userSpaceOnUse"/></defs><path fill="url(#c)" d="M72.232 99.49a35.3 35.3 0 0 1-7.944.907c-19.583 0-36.24-16.103-36.24-36.982s16.472-36.628 36.24-36.628c19.765 0 35.504 15.747 35.504 36.628 0 2.717-1.204 5.758-1.204 5.758v4l18.124 18.122c4.674-8.187 7.288-17.708 7.288-28.02C124 31.094 98.318 7 63.921 7 29.68 7 4 30.937 4 63.275c0 32.496 25.68 56.908 59.921 56.908 8.839 0 17.1-1.625 24.5-4.584v-4z" style="fill:url(#d);stroke-width:.489237"/><path fill="url(#e)" d="m122.738 105.727-30.06-29.718H75.747v17.496l28.806 28.71h18.185z" style="fill:url(#f);fill-opacity:1;stroke-width:.489237"/><path fill="#f0e64a" d="M75.747 76.01h16.931l-7.13-7.05H68.7v17.52l7.047 7.025z" style="fill:#c6bb10;fill-opacity:1;stroke-width:.489237"/><path fill="#ee7913" d="M68.7 68.96h16.848l-14.26-14.097H53.82v16.785L68.7 86.48z" style="fill:#8f480a;fill-opacity:1;stroke-width:.489237"/><path fill="#ee7913" d="M68.7 64.96h16.848l-14.26-14.097H53.82v16.785L68.7 82.48z" style="stroke-width:.489237"/><path fill="url(#e)" d="m122.738 101.727-30.06-29.718H75.747v17.496l28.806 28.71h18.185z" style="fill:url(#e);stroke-width:.489237"/><path fill="#f0e64a" d="M75.747 72.01h16.931l-7.13-7.05H68.7v17.52l7.047 7.025z" style="stroke-width:.489237"/><path fill="url(#c)" d="M72.232 95.49a35.3 35.3 0 0 1-7.944.907c-19.583 0-36.24-16.103-36.24-36.982s16.472-36.628 36.24-36.628c19.765 0 35.504 15.747 35.504 36.628a39.8 39.8 0 0 1-1.204 9.758l18.124 18.122c4.674-8.187 7.288-17.708 7.288-28.02C124 27.094 98.318 3 63.921 3 29.68 3 4 26.937 4 59.275c0 32.496 25.68 56.908 59.921 56.908 8.839 0 17.1-1.625 24.5-4.584z" style="fill:url(#c);stroke-width:.489237"/><path fill="#fff" fill-opacity=".172" d="m53.819 50.863 68.92 67.351v-16.487l-30.06-29.718-7.131-7.049-14.26-14.097Z" style="stroke-width:.489237"/></svg>
